assets/Writing hand/Default/Flat/writing_hand_flat_default.svg

<svg width="32" height="32" viewBox="0 0 32 32" fill="none" xmlns="http://www.w3.org/2000/svg">
<path d="M9.99487 15.5826C9.99487 14.2026 11.1149 13.0826 12.4949 13.0826C13.8749 13.0826 14.9949 14.2026 14.9949 15.5826V24.0027H21.9449V20.0027H29.9849V28.7627C29.9849 29.4427 29.4349 30.0027 28.7449 30.0027H19.5049C17.0149 30.0027 14.9949 27.9827 14.9949 25.4927V27.5026C14.9949 28.8826 13.8749 30.0026 12.4949 30.0026C11.1149 30.0026 9.99487 28.8826 9.99487 27.5026V15.5826Z" fill="#D67D00"/>
<path d="M13.0449 9.65265L28.8949 16.5326C29.5649 16.8226 29.9949 17.4726 29.9949 18.2026L29.9949 28.0126H23.1849C21.3049 28.0126 19.6149 27.1526 18.5649 25.7126C18.0749 25.0426 17.1649 24.8626 16.4449 25.2626C15.0649 26.0326 13.1849 27.0826 13.1849 27.0826C11.7507 27.9092 9.92974 27.4166 9.09504 26H8V22.5L6.67487 22.5126C6.20487 23.3126 5.36487 23.7626 4.50487 23.7626C4.07487 23.7626 3.64487 23.6526 3.25487 23.4226C2.05487 22.7226 1.64487 21.2026 2.33487 20.0026L7.53487 11.3226C8.70487 9.48265 11.0449 8.77265 13.0449 9.65265ZM8.12552 20H12.25V20.6903L14.5149 19.3826C14.6668 19.2949 14.8222 19.2226 14.9797 19.1647C14.8149 17.389 13.3243 16.0026 11.5049 16.0026C10.8349 16.0026 10.2149 17.3626 9.88487 17.9526L8.12552 20Z" fill="#FFC83D"/>
<path d="M19.1849 2.08261L21.5649 3.46261C21.8649 3.63261 21.9649 4.01261 21.7949 4.31261L12.3939 20.6072L10.1849 21.8826C8.75486 22.7126 8.25486 24.5426 9.08486 25.9826C9.11921 26.0418 9.15527 26.0993 9.19294 26.1553L8.63486 27.1226C8.47486 27.4026 8.24486 27.6526 7.97486 27.8426L5.22486 29.9226C4.90486 30.1426 4.46486 29.8926 4.49486 29.5026L4.87486 26.0626C4.90486 25.7226 5.00486 25.3926 5.17486 25.1026L18.3349 2.31261C18.5049 2.01261 18.8849 1.91261 19.1849 2.08261Z" fill="#F95725"/>
<path d="M8.5518 27.2561L5.12207 25.1982C4.98401 25.4642 4.90161 25.7594 4.87486 26.0626L4.60999 28.4604L6.07903 29.2765L7.97486 27.8426C8.20116 27.6834 8.39936 27.482 8.5518 27.2561Z" fill="#FBB8AB"/>
<path d="M4.68486 27.7227L4.49486 29.5027C4.46486 29.8927 4.90486 30.1427 5.22486 29.9227L6.62486 28.8527L4.68486 27.7227Z" fill="black"/>
<path d="M16.3949 5.67256L19.8549 7.67256L20.8949 5.87256L17.4349 3.87256L16.3949 5.67256Z" fill="#D3D3D3"/>
</svg>

<svg xmlns="http://www.w3.org/2000/svg" width="32" height="32" fill="none"><path fill="#D67D00" d="M9.995 15.583a2.5 2.5 0 0 1 5 0v8.42h6.95v-4h8.04v8.76c0 .68-.55 1.24-1.24 1.24h-9.24c-2.49 0-4.51-2.02-4.51-4.51v2.01a2.5 2.5 0 0 1-5 0v-11.92Z"/><path fill="#FFC83D" d="m13.045 9.653 15.85 6.88c.67.29 1.1.94 1.1 1.67v9.81h-6.81c-1.88 0-3.57-.86-4.62-2.3-.49-.67-1.4-.85-2.12-.45l-3.26 1.82A3.005 3.005 0 0 1 9.095 26H8v-3.5l-1.325.013a2.52 2.52 0 0 1-2.17 1.25c-.43 0-.86-.11-1.25-.34-1.2-.7-1.61-2.22-.92-3.42l5.2-8.68a4.419 4.419 0 0 1 5.51-1.67ZM8.125 20h4.125v.69l2.265-1.307c.152-.088.307-.16.465-.218a3.487 3.487 0 0 0-3.475-3.162c-.67 0-1.29 1.36-1.62 1.95L8.125 20Z"/><path fill="#F95725" d="m19.185 2.083 2.38 1.38c.3.17.4.55.23.85l-9.401 16.294-2.21 1.276a3.005 3.005 0 0 0-.991 4.272l-.558.968c-.16.28-.39.53-.66.72l-2.75 2.08a.468.468 0 0 1-.73-.42l.38-3.44c.03-.34.13-.67.3-.96l13.16-22.79c.17-.3.55-.4.85-.23Z"/><path fill="#FBB8AB" d="m8.552 27.256-3.43-2.058a2.32 2.32 0 0 0-.247.865L4.61 28.46l1.469.816 1.896-1.433c.226-.16.424-.361.577-.587Z"/><path fill="#000" d="m4.685 27.723-.19 1.78c-.03.39.41.64.73.42l1.4-1.07-1.94-1.13Z"/><path fill="#D3D3D3" d="m16.395 5.673 3.46 2 1.04-1.8-3.46-2-1.04 1.8Z"/></svg>
